X:1
T:Rennes, CMD
T:Rennes, CMD
T:George Frederick Root, 1880
T:Public Domain Courtesy of the Cyber Hymnal™
C:George Frederick Root, 1880
Z:Public Domain
Z:Courtesy of the Cyber Hymnal™
%%score ( 1 2 ) ( 3 4 )
L:1/8
Q:1/4=105
M:4/4
K:G
V:1 treble 
V:2 treble 
V:3 bass 
V:4 bass 
V:1
 z [B,D] | [B,D]2 [CE]2 [B,G]3 [CA] | [DB]2 (dc) [DB]3 [DA] | [DG]2 [DG]2 [DA]2 [DA]2 | %4
 [DB]6 z [B,D] | [B,D]2 [CE]2 [B,G]3 [CA] | [DB]2 (dc) [DB]3 [DA] | [DG]2 [DG]2 [CA]3 [CF] | %8
 [B,G]6 z [B,G] | [Ec]2 [Ec]2 [DB]3 [DB] | [DA]2 [DA]2 [DB]3 [DB] | [Gc]2 [Dc]2 [DB]2 [Ec]2 | %12
 (B4 A2) z [CD] | [B,D]2 [CE]2 [B,G]3 [CA] | [DB]2 (dc) [DB]3 [DA] | [DG]2 [DG]2 [CA]3 [CF] | %16
 [B,G]6 |] %17
V:2
 x2 | x8 | x2 E2 x4 | x8 | x8 | x8 | x2 E2 x4 | x8 | x8 | x8 | x8 | x8 | D6 x2 | x8 | x2 E2 x4 | %15
 x8 | x6 |] %17
V:3
 z [G,,G,] | [G,,G,]2 [G,,G,]2 [G,,G,]3 G, | G,2 G,2 G,3 G, | [B,,G,]2 [B,,G,]2 [D,F,]2 [D,F,]2 | %4
 G,6 z [G,,G,] | [G,,G,]2 [G,,G,]2 [G,,G,]3 G, | G,2 G,2 G,3 G, | %7
 [B,,G,]2 [B,,G,]2 [D,F,]3 [D,A,] | [G,,G,]6 z G, | [C,G,]2 [E,G,]2 G,3 G, | %10
 [D,F,]2 [D,F,]2 G,3 G, | [E,G,]2 [F,A,]2 G,2 [C,G,]2 | (G,4 F,2) z [D,F,] | %13
 [G,,G,]2 [G,,G,]2 [G,,G,]3 G, | G,2 G,2 G,3 G, | [B,,G,]2 [B,,G,]2 [D,F,]3 [D,A,] | [G,,G,]6 |] %17
V:4
 x2 | x7 G, | G,2 G,2 G,3 G, | x8 | G,6 x2 | x7 G, | G,2 G,2 G,3 G, | x8 | x7 G, | x4 G,3 G, | %10
 x4 G,3 G, | x4 G,2 x2 | D,6 x2 | x7 G, | G,2 G,2 G,3 G, | x8 | x6 |] %17

